X:368
T:The White Calf
B:Joyce, P. W.; "Old Irish Folk Music and Songs"
R:song air
H:Restored here from a very incorrect version
N:See #361 for further history
A:Cork
O:Irish
L:1/8
M:9/8
K:D
d|AFF FED DFA|B=cB AFA E2 d|AFF FED DFA|B=cB E2 D D2||
A|FAA ABc d2 d|dAG FED E2 d|AFF FED DFA|B=cB E2 D D2||


